X: 38241
T: Squirrel Hunters, The
R: reel
M: 4/4
K: Gmajor
e2 ed B2 d2|e=fed B2 A2|G2 GB d3 d|BAGB d2 gf|
efeA B2 Gd|e2 eA B2 Ad|G2 B2 d2 gd|cB^cA e2:|
e2 a2 a2 gf|e^def ge=dB|G2 GB d2 B/^c/d|GFGB d3 g|
e2 a2 a2 gf|e2 ef gedg|G3 B d2 gd|cA^cA e2:|
& to end ~|dB G2 G/G/G g2||

